_inc/images/systems/logos/auto-platform.svg

<svg viewBox="0 0 200 40" xmlns="http://www.w3.org/2000/svg">
    <path d="M37.59 24.985h-3.728l-.782 4.519h-5.712l3.307-18.702h9.02c3.407 0 5.111 1.575 5.111 4.728 0 1.496-.21 2.846-.631 4.049-.422 1.21-.885 2.172-1.393 2.882-.515.707-1.22 1.305-2.115 1.797-.889.485-1.914.727-3.077.727Zm-.752-9.395h-1.322l-.812 4.608h1.323c.681 0 1.195-.074 1.543-.22.354-.152.582-.498.682-1.037.26-1.476.39-2.284.39-2.423 0-.38-.15-.629-.451-.749-.3-.119-.752-.179-1.353-.179Zm20.024 9.126-.841 4.788H44.596l3.307-18.702h5.712L51.15 24.716h5.712Zm4.48 1.826-1.172 2.962h-6.013l7.907-18.702h8.839l1.323 18.702h-6.043l-.12-2.962h-4.721Zm4.27-9.994h-.301l-2.105 5.236h2.406v-5.236Zm23.481-5.746-.873 4.788h-4.149l-2.434 13.914h-5.713l2.435-13.914H74.24l.872-4.788h13.981Zm11.695 7.302-.812 4.458h-4.87l-1.203 6.942h-5.712l3.307-18.702h11.725l-1.593 4.788h-5.291l-.422 2.514h4.871Zm9.02-1.049-1.383 7.781h2.375c.782 0 1.363-.093 1.744-.28.381-.192.631-.628.752-1.306l1.383-7.78h-2.406c-.761 0-1.333.093-1.714.28-.38.192-.631.628-.751 1.305Zm3.457-6.702c2.546 0 4.36.495 5.442 1.486 1.083.985 1.624 2.504 1.624 4.559 0 2.054-.328 4.205-.983 6.453-.648 2.241-1.68 3.983-3.096 5.227-1.41 1.25-3.475 1.875-6.194 1.875-2.713 0-4.61-.492-5.692-1.476-1.082-.991-1.624-2.514-1.624-4.569 0-.977.141-2.267.421-3.87.281-1.609.652-2.995 1.112-4.159.462-1.17 1.083-2.185 1.864-3.042 1.504-1.656 3.879-2.484 7.126-2.484Zm21.587 12.927 1.985 6.224h-6.284l-1.383-5.565h-1.232l-.963 5.565h-5.712l3.307-18.702h9.02c3.427 0 5.141 1.526 5.141 4.578 0 1.257-.19 2.454-.571 3.591-.702 2.154-1.804 3.591-3.308 4.309Zm-4.299-7.69h-1.142l-.662 3.741h1.323c.682 0 1.196-.074 1.544-.22.354-.153.594-.582.721-1.288.133-.71.2-1.146.2-1.305 0-.4-.153-.656-.461-.768-.313-.108-.822-.16-1.523-.16Zm16.086 4.847-1.955 9.067h-5.953l4.39-18.702h7.456l.541 9.515h.21l3.909-9.515h7.457l-2.226 18.702h-5.982l1.262-9.067h-.211l-3.758 9.067h-4.359l-.631-9.067h-.15Zm30.456-2.333-.782 4.338h-5.712l-.391 2.274h7.005l-.842 4.788h-12.718l3.307-18.702h12.568l-1.563 4.788h-6.164l-.421 2.514h5.713Zm16.085 5.176 1.984 6.224h-6.284l-1.383-5.565h-1.232l-.963 5.565h-5.712l3.308-18.702h9.019c3.427 0 5.141 1.526 5.141 4.578 0 1.257-.19 2.454-.571 3.591-.701 2.154-1.804 3.591-3.307 4.309Zm-4.3-7.69h-1.142l-.661 3.741h1.322c.682 0 1.196-.074 1.544-.22.354-.153.594-.582.721-1.288.133-.71.201-1.146.201-1.305 0-.4-.154-.656-.461-.768-.314-.108-.822-.16-1.524-.16Z" style="white-space:pre;fill:#fff"/>
    <path d="M0 1120V0h2240v2240H0V1120zm300 920v-100H100v200h200v-100zm1840 0v-100h-200v200h200v-100zm-780-285v-155h-320v310h320v-155zm0-485v-160h320V480h-170V320H710v160H560v480h320V480h480v480h-170v150h-150v320h320v-160zM300 200V100H100v200h200V200zm1840 0V100h-200v200h200V200z" style="fill:#ccc" transform="matrix(.00897 0 0 .00893 2.942 10)" fill="#d4d4d4"/>
</svg>

<?xml version="1.0" encoding="utf-8"?>
<svg viewBox="0 0 200 40" xmlns="http://www.w3.org/2000/svg">
  <path d="M 37.59 24.985 L 37.59 24.985 L 33.862 24.985 L 33.08 29.504 L 27.368 29.504 L 30.675 10.802 L 39.695 10.802 L 39.695 10.802 C 43.102 10.802 44.806 12.377 44.806 15.53 L 44.806 15.53 L 44.806 15.53 C 44.806 17.026 44.596 18.376 44.175 19.579 L 44.175 19.579 L 44.175 19.579 C 43.753 20.789 43.29 21.751 42.782 22.461 L 42.782 22.461 L 42.782 22.461 C 42.267 23.168 41.562 23.766 40.667 24.258 L 40.667 24.258 L 40.667 24.258 C 39.778 24.743 38.753 24.985 37.59 24.985 Z M 36.838 15.59 L 35.516 15.59 L 34.704 20.198 L 36.027 20.198 L 36.027 20.198 C 36.708 20.198 37.222 20.124 37.57 19.978 L 37.57 19.978 L 37.57 19.978 C 37.924 19.826 38.152 19.48 38.252 18.941 L 38.252 18.941 L 38.252 18.941 C 38.512 17.465 38.642 16.657 38.642 16.518 L 38.642 16.518 L 38.642 16.518 C 38.642 16.138 38.492 15.889 38.191 15.769 L 38.191 15.769 L 38.191 15.769 C 37.891 15.65 37.439 15.59 36.838 15.59 L 36.838 15.59 Z M 56.862 24.716 L 56.021 29.504 L 44.596 29.504 L 47.903 10.802 L 53.615 10.802 L 51.15 24.716 L 56.862 24.716 Z M 61.342 26.542 L 60.17 29.504 L 54.157 29.504 L 62.064 10.802 L 70.903 10.802 L 72.226 29.504 L 66.183 29.504 L 66.063 26.542 L 61.342 26.542 Z M 65.612 16.548 L 65.311 16.548 L 63.206 21.784 L 65.612 21.784 L 65.612 16.548 Z M 89.093 10.802 L 88.22 15.59 L 84.071 15.59 L 81.637 29.504 L 75.924 29.504 L 78.359 15.59 L 74.24 15.59 L 75.112 10.802 L 89.093 10.802 Z M 100.788 18.104 L 99.976 22.562 L 95.106 22.562 L 93.903 29.504 L 88.191 29.504 L 91.498 10.802 L 103.223 10.802 L 101.63 15.59 L 96.339 15.59 L 95.917 18.104 L 100.788 18.104 Z M 109.808 17.055 L 109.808 17.055 L 108.425 24.836 L 110.8 24.836 L 110.8 24.836 C 111.582 24.836 112.163 24.743 112.544 24.556 L 112.544 24.556 L 112.544 24.556 C 112.925 24.364 113.175 23.928 113.296 23.25 L 113.296 23.25 L 114.679 15.47 L 112.273 15.47 L 112.273 15.47 C 111.512 15.47 110.94 15.563 110.559 15.75 L 110.559 15.75 L 110.559 15.75 C 110.179 15.942 109.928 16.378 109.808 17.055 Z M 113.265 10.353 L 113.265 10.353 L 113.265 10.353 C 115.811 10.353 117.625 10.848 118.707 11.839 L 118.707 11.839 L 118.707 11.839 C 119.79 12.824 120.331 14.343 120.331 16.398 L 120.331 16.398 L 120.331 16.398 C 120.331 18.452 120.003 20.603 119.348 22.851 L 119.348 22.851 L 119.348 22.851 C 118.7 25.092 117.668 26.834 116.252 28.078 L 116.252 28.078 L 116.252 28.078 C 114.842 29.328 112.777 29.953 110.058 29.953 L 110.058 29.953 L 110.058 29.953 C 107.345 29.953 105.448 29.461 104.366 28.477 L 104.366 28.477 L 104.366 28.477 C 103.284 27.486 102.742 25.963 102.742 23.908 L 102.742 23.908 L 102.742 23.908 C 102.742 22.931 102.883 21.641 103.163 20.038 L 103.163 20.038 L 103.163 20.038 C 103.444 18.429 103.815 17.043 104.275 15.879 L 104.275 15.879 L 104.275 15.879 C 104.737 14.709 105.358 13.694 106.139 12.837 L 106.139 12.837 L 106.139 12.837 C 107.643 11.181 110.018 10.353 113.265 10.353 Z M 134.852 23.28 L 136.837 29.504 L 130.553 29.504 L 129.17 23.939 L 127.938 23.939 L 126.975 29.504 L 121.263 29.504 L 124.57 10.802 L 133.59 10.802 L 133.59 10.802 C 137.017 10.802 138.731 12.328 138.731 15.38 L 138.731 15.38 L 138.731 15.38 C 138.731 16.637 138.541 17.834 138.16 18.971 L 138.16 18.971 L 138.16 18.971 C 137.458 21.125 136.356 22.562 134.852 23.28 L 134.852 23.28 Z M 130.553 15.59 L 129.411 15.59 L 128.749 19.331 L 130.072 19.331 L 130.072 19.331 C 130.754 19.331 131.268 19.257 131.616 19.111 L 131.616 19.111 L 131.616 19.111 C 131.97 18.958 132.21 18.529 132.337 17.823 L 132.337 17.823 L 132.337 17.823 C 132.47 17.113 132.537 16.677 132.537 16.518 L 132.537 16.518 L 132.537 16.518 C 132.537 16.118 132.384 15.862 132.076 15.75 L 132.076 15.75 L 132.076 15.75 C 131.763 15.642 131.254 15.59 130.553 15.59 L 130.553 15.59 Z M 146.639 20.437 L 144.684 29.504 L 138.731 29.504 L 143.121 10.802 L 150.577 10.802 L 151.118 20.317 L 151.328 20.317 L 155.237 10.802 L 162.694 10.802 L 160.468 29.504 L 154.486 29.504 L 155.748 20.437 L 155.537 20.437 L 151.779 29.504 L 147.42 29.504 L 146.789 20.437 L 146.639 20.437 Z M 177.095 18.104 L 176.313 22.442 L 170.601 22.442 L 170.21 24.716 L 177.215 24.716 L 176.373 29.504 L 163.655 29.504 L 166.962 10.802 L 179.53 10.802 L 177.967 15.59 L 171.803 15.59 L 171.382 18.104 L 177.095 18.104 Z M 193.18 23.28 L 195.164 29.504 L 188.88 29.504 L 187.497 23.939 L 186.265 23.939 L 185.302 29.504 L 179.59 29.504 L 182.898 10.802 L 191.917 10.802 L 191.917 10.802 C 195.344 10.802 197.058 12.328 197.058 15.38 L 197.058 15.38 L 197.058 15.38 C 197.058 16.637 196.868 17.834 196.487 18.971 L 196.487 18.971 L 196.487 18.971 C 195.786 21.125 194.683 22.562 193.18 23.28 L 193.18 23.28 Z M 188.88 15.59 L 187.738 15.59 L 187.077 19.331 L 188.399 19.331 L 188.399 19.331 C 189.081 19.331 189.595 19.257 189.943 19.111 L 189.943 19.111 L 189.943 19.111 C 190.297 18.958 190.537 18.529 190.664 17.823 L 190.664 17.823 L 190.664 17.823 C 190.797 17.113 190.865 16.677 190.865 16.518 L 190.865 16.518 L 190.865 16.518 C 190.865 16.118 190.711 15.862 190.404 15.75 L 190.404 15.75 L 190.404 15.75 C 190.09 15.642 189.582 15.59 188.88 15.59 L 188.88 15.59 Z" style="white-space: pre; fill: rgb(255, 255, 255);"/>
  <g id="layer2" fill="#d4d4d4" stroke="none" transform="matrix(0.008971, 0, 0, 0.008929, 2.942215, 9.999518)">
    <path d="M0 1120 l0 -1120 1120 0 1120 0 0 1120 0 1120 -1120 0 -1120 0 0 -1120z m300 920 l0 -100 -100 0 -100 0 0 100 0 100 100 0 100 0 0 -100z m1840 0 l0 -100 -100 0 -100 0 0 100 0 100 100 0 100 0 0 -100z m-780 -285 l0 -155 -160 0 -160 0 0 155 0 155 160 0 160 0 0 -155z m0 -485 l0 -160 160 0 160 0 0 -315 0 -315 -85 0 -85 0 0 -80 0 -80 -400 0 -400 0 0 80 0 80 -75 0 -75 0 0 240 0 240 160 0 160 0 0 -240 0 -240 240 0 240 0 0 240 0 240 -85 0 -85 0 0 75 0 75 -75 0 -75 0 0 160 0 160 160 0 160 0 0 -160z m-1060 -1070 l0 -100 -100 0 -100 0 0 100 0 100 100 0 100 0 0 -100z m1840 0 l0 -100 -100 0 -100 0 0 100 0 100 100 0 100 0 0 -100z" style="fill: rgb(204, 204, 204);"/>
  </g>
</svg>
